svg/sticker_remove_outline.svg

<svg xmlns="http://www.w3.org/2000/svg" viewBox="0 0 24 24"><path d="M16 9.4 13.4 12l2.6 2.6-1.4 1.4-2.6-2.6L9.4 16 8 14.6l2.6-2.6L8 9.4 9.4 8l2.6 2.6L14.6 8zm6-3.9V16l-6 6H5.5C3.6 22 2 20.4 2 18.5v-13C2 3.6 3.6 2 5.5 2h13C20.4 2 22 3.6 22 5.5m-2 .3c0-1-.8-1.8-1.8-1.8H5.8C4.8 4 4 4.8 4 5.8v12.5c0 1 .8 1.8 1.8 1.8H15v-1.5c0-1.9 1.6-3.5 3.5-3.5H20z"/></svg>

<?xml version="1.0" encoding="UTF-8"?><!DOCTYPE svg PUBLIC "-//W3C//DTD SVG 1.1//EN" "http://www.w3.org/Graphics/SVG/1.1/DTD/svg11.dtd"><svg xmlns="http://www.w3.org/2000/svg" xmlns:xlink="http://www.w3.org/1999/xlink" version="1.1" id="mdi-sticker-remove-outline" width="24" height="24" viewBox="0 0 24 24"><path d="M16 9.4L13.4 12L16 14.6L14.6 16L12 13.4L9.4 16L8 14.6L10.6 12L8 9.4L9.4 8L12 10.6L14.6 8L16 9.4M22 5.5V16L16 22H5.5C3.6 22 2 20.4 2 18.5V5.5C2 3.6 3.6 2 5.5 2H18.5C20.4 2 22 3.6 22 5.5M20 5.8C20 4.8 19.2 4 18.2 4H5.8C4.8 4 4 4.8 4 5.8V18.3C4 19.3 4.8 20.1 5.8 20.1H15V18.6C15 16.7 16.6 15.1 18.5 15.1H20V5.8Z" /></svg>
